X: 3
T: Whiskey Before Breakfast
I: RJ R-69 D reel Set 26
C: Andy DeJarlis
M: C|
R: reel
K: D
|:::\
"D"A,B,DE D2FG | AFBF A2EF | "G"G2BG "D"F2AF |\
"A7"EDEF [1,3 EDB,A, :|[2,4 "D"D4 ::\
"D"F2d2 d2Bc | dcdA BAFA |
"Em"e4 e2ef | gfed "A7"cABc ||\
"D"d2fd "A"c2ec | "G"BABd "D"BAFD | "G"G2BG "D"F2AF | "A7"EDEF "D"D4 :|
% text 1/20/02

